X: 20342
T: John Brosnan's
R: reel
M: 4/4
K: Bminor
|:FBBB FBde|edef dcBA|FAAA FAEA|FAAA fAeA
FBBB FBde|edef dcBA|~f3d efcA|1 FBBA B~B3:|2 FBBA B2de||
|:fBBB FBde|fbbf afeg|fBBB FBde|e2ce Aceg|
fBBB FBde|f2bf afeg|~f3d efcA|1 FBBA B2de:|2 FBBB d2cA||

